dist/assets/symbols/trash.svg

<svg width="21" height="21" viewBox="0 0 21 21" fill="none" xmlns="http://www.w3.org/2000/svg">
<path d="M15.25 9.5V16.9C15.25 17.2314 14.9814 17.5 14.65 17.5H5.85C5.51863 17.5 5.25 17.2314 5.25 16.9V9.5" stroke="#1E4557" stroke-width="1.5" stroke-linecap="round" stroke-linejoin="round"/>
<path d="M8.25 14.5V9.5" stroke="#1E4557" stroke-width="1.5" stroke-linecap="round" stroke-linejoin="round"/>
<path d="M12.25 14.5V9.5" stroke="#1E4557" stroke-width="1.5" stroke-linecap="round" stroke-linejoin="round"/>
<path d="M17.25 6.5L13.3611 6.5M3.25 6.5L7.13889 6.5M7.13889 6.5V4.1C7.13889 3.76863 7.40752 3.5 7.73889 3.5H12.7611C13.0925 3.5 13.3611 3.76863 13.3611 4.1V6.5M7.13889 6.5L13.3611 6.5" stroke="#1E4557" stroke-width="1.5" stroke-linecap="round" stroke-linejoin="round"/>
</svg>

<svg xmlns="http://www.w3.org/2000/svg" width="21" height="21" fill="none"><path stroke="#1E4557" stroke-linecap="round" stroke-linejoin="round" stroke-width="1.5" d="M15.25 9.5v7.4a.6.6 0 0 1-.6.6h-8.8a.6.6 0 0 1-.6-.6V9.5M8.25 14.5v-5M12.25 14.5v-5M17.25 6.5h-3.889M3.25 6.5h3.889m0 0V4.1a.6.6 0 0 1 .6-.6h5.022a.6.6 0 0 1 .6.6v2.4m-6.222 0h6.222"/></svg>
